X:455
T: Yellow Kid
T: Gabhair\'in Bu\'i
S: B.Breathnach: "Ceol Rince na hEireann" II/110
Z: B.Black
L: 1/8
M: 2/4
R: polka
K: G
GG/G/ GG|B2 AG|B(3A/B/A/ AG|GA AB|
DE GA|B2 AB/A/|GE ED|GE EG|
DE GA|B2 GA|B(3A/B/A/ AG|B(3A/B/A/ AB|
DE GA|B2 AB/A/|GE ED|GE ED||
dd ed|B2 GA|BA AG|BA AA|
dd ed|B2 AB/A/|GE ED GE ED :|

